src/topics/icons/cloud9.svg

<svg height="234" preserveAspectRatio="xMidYMid" viewBox="0 0 256 234" width="256" xmlns="http://www.w3.org/2000/svg"><path d="m14.6942601 222.613042c3.8984771 1.799297 7.7969543 2.598985 11.6954314 2.598985 3.6985553 0 7.2971496-.799688 10.7957829-2.499024 1.4994143-.699727 2.6989457-1.099571 3.4986334-1.299493 1.4994143-.299883 2.5989847-.699726 2.9988286-1.09957 1.0995704-.99961 2.09918-2.299102 2.8988676-3.998438s1.1995314-3.198751 1.1995314-4.598204c0-1.099571-.2998828-1.999219-.8996486-2.798907-.5997657-.799687-1.2994923-1.09957-2.09918-1.09957-.5997657 0-1.2994924.399844-2.1991409 1.299492-.9996096.99961-2.4990238 1.799297-4.298321 2.499024-1.8992581.599766-3.6985552.899649-5.5978133.899649-5.0980086 0-9.0964468-2.199141-11.7953925-6.697384-1.999219-3.298712-3.0987895-6.997267-3.0987895-11.095666 0-2.898868.6997267-5.297931 2.09918-6.997267s3.2987114-2.598985 5.6977743-2.598985c2.4990238 0 4.8980867.799688 7.0972277 2.399063.8996485.699727 1.6993361 1.399454 2.2991019 2.199141.5997657.799688 1.3994533 2.09918 2.4990238 3.998438.6997267 1.299493 1.3994533 2.199141 2.1991409 2.698946.7996877.499805 1.6993362.799688 2.8988677.799688 1.2994924 0 2.4990238-.399844 3.4986333-1.099571 1.8992581-1.299492 2.8988676-3.398672 2.8988676-6.197579 0-3.998438-1.0995704-7.39711-3.3986723-10.096056-.8996486-1.09957-1.9992191-1.699336-3.1987505-1.699336-.3998438 0-.6997267 0-.9996096.099961-.8996485.199922-1.5993752.299883-1.999219.299883-.5997657 0-1.5993753-.399844-3.0987896-1.099571-3.1987504-1.499414-6.4974619-2.199141-9.8961343-2.199141-3.5985943 0-7.1971886.699727-10.595861 2.199141-4.4982428 1.999219-8.19679809 4.798126-10.99570477 8.496681-3.19875049 4.298321-4.79812573 8.996486-4.79812573 14.194455 0 4.498243 1.29949239 8.696603 3.89847716 12.795002 2.69894572 4.498243 6.19757904 7.696994 10.79578294 9.696213zm38.5849277-35.386177c1.2994924.799687 2.09918 1.999219 2.4990238 3.598594.2998829 1.599375.4998048 5.29793.4998048 10.995705 0 5.597813-.1999219 9.896134-.5997657 12.994923-.1999219 1.799298-.7996876 2.898868-1.6993362 3.298712-.9996095.399844-1.5993753.799688-1.8992581 1.09957-.2998829.299883-.3998438.699727-.3998438 1.299493 0 .699726.2998828 1.399453.7996876 1.999219s1.1995314 1.09957 2.09918 1.399453c1.7992972.699727 4.9980476.99961 9.4962905.99961 3.9984381 0 6.7973448-.299883 8.496681-.799688.8996486-.299883 1.5993752-.699727 2.199141-1.299492.4998047-.599766.7996876-1.299493.7996876-2.09918 0-.599766-.099961-1.099571-.3998438-1.399454-.2998829-.299883-.8996486-.699726-1.6993362-1.09957-.9996096-.399844-1.7992972-1.099571-1.8992581-1.899258-.1999219-.799688-.3998438-3.698555-.3998438-8.696603v-11.295588c0-3.498633.3998438-7.297149.6997266-11.495509.1999219-2.698946.4998048-4.398282.4998048-5.19797 0-2.299102-.8996486-3.398672-2.6989457-3.398672-1.1995315 0-2.9988286.199922-5.5978134.699726-2.5989848.399844-4.5982038.899649-6.29754 1.399454-2.3990629.699726-4.19836 1.499414-5.2979305 2.399063-1.0995705.899648-1.5993752 1.899258-1.5993752 2.998828 0 .699727.1999219 1.299493.4998047 1.799297.2998829.599766.9996095 1.199532 1.8992581 1.699337zm42.7832878 37.985162c5.6977744 0 10.7957824-1.699337 15.2940254-5.098009 4.698165-3.598594 6.997267-7.896915 6.997267-12.894963 0-2.898868-.699727-5.697774-2.199141-8.39672-1.399453-2.598985-3.298711-4.598204-5.597813-6.197579-3.198751-2.199141-6.997267-3.298711-11.2955879-3.298711-6.0976181 0-11.3955486 1.799297-15.6938696 5.497852-4.0983991 3.498633-6.1975791 7.996876-6.1975791 13.494729 0 4.998047 1.6993362 8.996485 4.9980477 12.095275 3.5985943 3.19875 8.1967981 4.798126 13.6946505 4.798126zm-1.9992191-26.689575c.5997658-.799687 1.3994534-1.09957 2.4990239-1.09957 1.3994533 0 2.4990238.899648 3.1987504 2.499024.6997272 1.599375 1.3994532 3.598594 1.8992582 6.097618.499805 2.499023.799688 4.698164.799688 6.697383 0 2.598985-.99961 3.998439-3.09879 3.998439-1.5993752 0-2.7989066-.99961-3.4986333-2.898868s-1.3994533-3.998438-1.8992581-6.397501-.7996876-4.298321-.7996876-5.697774c0-1.399454.2998828-2.399063.8996485-3.198751zm54.5786805 26.089809c.399844.299883 1.199531.399844 2.299102.399844 2.698945 0 5.597813-.299883 8.496681-.99961 4.998047-1.09957 7.497071-2.798907 7.497071-4.898087 0-1.09957-.399844-1.899258-1.499414-2.499023-1.399454-.699727-1.799297-1.399454-1.799297-2.199141v-15.493948c0-1.599375-.199922-2.998829-.199922-4.098399 0-.799688-.099961-1.299492-.099961-1.599375 0-2.499024-1.199532-3.798517-3.598595-3.798517-4.19836 0-8.596641.499805-12.894962 1.599376-2.299102.599765-3.498634 1.599375-3.498634 2.998828 0 1.099571.699727 1.999219 1.999219 2.698946.699727.399844 1.099571.699727 1.299493.899649.199922.299882.399843.699726.499804 1.299492.299883 1.399453.399844 3.998438.399844 7.896915s-.299883 6.397501-.799687 7.497072c-.299883.599765-.699727.999609-1.399454 1.399453-.699726.399844-1.299492.599766-1.999219.599766-2.698945 0-3.998438-1.999219-3.998438-6.097618v-18.992581c0-1.199532-.699727-1.799298-2.09918-1.799298-4.598204 0-9.196408.499805-13.794611 1.499415-2.698946.599765-3.998438 1.799297-3.998438 3.498633 0 .499805.09996.899649.399843 1.199532.199922.299882.799688.699726 1.699337 1.09957.999609.499805 1.499414 1.299492 1.899258 2.199141.399843.899649.499804 2.399063.499804 4.398282v1.599375 4.898087c0 5.098008.799688 8.796564 2.399063 10.995705 1.799297 2.598984 4.998048 3.898477 9.496291 3.898477 2.698946 0 5.29793-.799688 7.597032-2.399063 1.199532-.799688 1.899258-1.299492 2.09918-1.399453s.499805-.199922.799688-.199922c.799687 0 1.199531.699726 1.299492 2.199141.299883.999609.599766 1.499414.99961 1.699336zm26.28973-3.398673c2.898868 2.698946 6.197579 3.998439 9.796174 3.998439 2.898867 0 5.597813-.99961 7.996876-2.898868.799688-.699727 1.499414-1.099571 1.899258-1.099571.699727 0 1.09957.599766 1.299492 1.799298.099961.799687.199922 1.399453.399844 1.599375s.699727.299883 1.499414.299883c3.398673 0 6.797345-.399844 10.196018-1.299493 3.798516-.999609 5.597813-2.399063 5.597813-4.298321 0-.599765-.099961-1.199531-.399844-1.599375s-.899648-.999609-1.699336-1.499414c-.699727-.499805-1.599375-.99961-1.699336-1.499414-.199922-.499805-.699727-1.699337-.699727-3.498634v-31.987505c0-1.899258-.599766-2.898867-2.598985-2.898867s-5.797735.799687-11.795392 2.499023c-3.398672.99961-4.998048 2.299102-4.998048 3.998439 0 1.199531.799688 1.999219 2.299102 2.499023 1.099571.299883 1.799297.699727 2.199141 1.199532s.599766 1.09957.599766 1.999219c0 1.999219-.399844 2.998828-1.099571 2.998828-.199921 0-.499804-.09996-.799687-.299882-2.09918-1.199532-4.598204-1.799298-7.29715-1.799298-2.399063 0-4.798125.599766-7.197188 1.899259-2.898868 1.499414-5.19797 3.698555-6.897306 6.497461-1.799297 3.09879-2.698946 6.19758-2.698946 9.496291 0 2.798907.699727 5.597813 2.09918 8.296759.899649 2.09918 2.299102 3.998438 3.998438 5.597813zm12.295198-21.891448c.899648-1.599375 2.09918-2.399063 3.598594-2.399063 1.199531 0 2.09918.499805 2.798906 1.499414.799688 1.199532 1.199532 3.598595 1.199532 7.197189 0 3.898477-.299883 6.797345-.99961 8.496681-.699726 1.799297-1.799297 2.598985-3.298711 2.598985-1.399453 0-2.499024-.599766-3.298711-1.799298-1.099571-1.599375-1.699337-3.998438-1.699337-7.197188-.099961-3.498634.499805-6.29754 1.699337-8.39672zm43.283092 16.993362c1.299492-.099961 2.09918-.199922 2.399063-.199922.899648 0 1.399453.399844 1.399453 1.299492 0 1.099571-.599765 2.598985-1.699336 4.398282-1.199531 1.999219-2.698946 3.498634-4.398282 4.598204-1.399453.899649-2.09918 1.599375-2.09918 2.09918 0 .699727 1.099571 1.699336 3.398673 2.898868 2.19914 1.199531 4.098399 1.799297 5.497852 1.799297.799688 0 1.799297-.399844 2.998829-1.299493 4.998047-3.698555 9.296368-8.696603 12.994923-14.894182 3.298712-5.597813 4.998048-10.995704 4.998048-16.093713 0-6.29754-2.499024-10.895744-7.597032-13.794611-3.898478-2.09918-8.096838-3.198751-12.795002-3.198751-5.797736 0-10.695822 1.499414-14.69426 4.398282-3.798517 2.698946-5.697775 6.597423-5.697775 11.595471 0 2.499023.499805 4.898086 1.399454 7.197188.899648 2.299102 2.299102 4.298321 3.998438 5.897696 2.299102 2.199141 5.29793 3.198751 8.996485 3.198751.399844.199922.699727.199922.899649.099961zm1.999219-20.9918c.699727-.799688 1.499414-1.299493 2.499024-1.299493 1.09957 0 2.09918.499805 2.998829 1.499415.699726.799687 1.299492 1.999219 1.799297 3.598594.499804 1.599375.799687 2.998828.799687 4.298321 0 1.09957-.299883 1.999219-.899648 2.698946-.599766.699726-1.399454 1.09957-2.299102 1.09957-1.599375 0-2.998829-.899649-4.19836-2.598985-1.199532-1.699336-1.799297-3.798516-1.799297-6.197579.099961-1.199531.499804-2.199141 1.09957-3.098789zm8.496681-128.0499808c-13.594689-13.5946896-32.987114-17.9929715-50.180398-13.0948848-2.998829-30.3881296-28.688794-54.1788364-59.77665-54.1788364-28.788754 0-52.8793439 20.2920734-58.6770792 47.3814916-18.992581-6.0976181-40.5841468-1.5993752-55.6782507 13.4947286-21.49160483 21.4916049-21.49160483 56.2780168 0 77.7696208 17.7930496 17.79305 43.7828973 22.891059 57.2776259 22.891059h6.397501 98.66146c20.392035.099961 42.483405-2.199141 61.87583-21.491605 20.092152-20.192113 20.092152-52.6794223.099961-72.7715738zm-85.566575 43.2830928c-3.998439 6.797345-18.392816 28.089027-25.390082 28.089027-3.698556 0-17.293245-6.797344-17.293245-11.59547 0-1.699336 1.899258-3.498633 2.898867-4.098399 6.29754-4.098399 13.194846-16.093714 13.194846-22.691136 0-2.1991413-1.199531-3.0987899-2.798907-3.0987899-2.09918 0-4.298321.4998047-6.397501.4998047-19.292463 0-28.1889882-20.8918391-28.1889882-39.6844982 0-26.4896525 20.5919562-38.5849278 39.3846152-38.5849278 19.992191 0 40.184303 12.2951972 40.184303 40.184303 0 19.092542-6.697384 35.985943-15.593908 50.9800862zm-25.590004-66.7739167c-4.398282 0-6.797345 5.7977353-6.797345 10.7957829 0 8.2967591 3.698555 21.3916439 11.59547 21.3916439 4.098399 0 6.29754-4.5982038 6.29754-9.2963686-.099961-7.0972277-3.398672-22.8910582-11.095665-22.8910582z" fill="#00a8e9"/></svg>

<?xml version="1.0" encoding="UTF-8" standalone="no"?>
<svg width="256px" height="234px" viewBox="0 0 256 234" version="1.1" xmlns="http://www.w3.org/2000/svg" xmlns:xlink="http://www.w3.org/1999/xlink" preserveAspectRatio="xMidYMid">
    <g>
        <path d="M14.6942601,222.613042 C18.5927372,224.412339 22.4912144,225.212027 26.3896915,225.212027 C30.0882468,225.212027 33.6868411,224.412339 37.1854744,222.713003 C38.6848887,222.013276 39.8844201,221.613432 40.6841078,221.41351 C42.1835221,221.113627 43.2830925,220.713784 43.6829364,220.31394 C44.7825068,219.31433 45.7821164,218.014838 46.581804,216.315502 C47.3814916,214.616166 47.7813354,213.116751 47.7813354,211.717298 C47.7813354,210.617727 47.4814526,209.718079 46.8816868,208.918391 C46.2819211,208.118704 45.5821945,207.818821 44.7825068,207.818821 C44.1827411,207.818821 43.4830144,208.218665 42.5833659,209.118313 C41.5837563,210.117923 40.0843421,210.91761 38.2850449,211.617337 C36.3857868,212.217103 34.5864897,212.516986 32.6872316,212.516986 C27.589223,212.516986 23.5907848,210.317845 20.8918391,205.819602 C18.8926201,202.52089 17.7930496,198.822335 17.7930496,194.723936 C17.7930496,191.825068 18.4927763,189.426005 19.8922296,187.726669 C21.2916829,186.027333 23.190941,185.127684 25.5900039,185.127684 C28.0890277,185.127684 30.4880906,185.927372 32.6872316,187.526747 C33.5868801,188.226474 34.3865677,188.926201 34.9863335,189.725888 C35.5860992,190.525576 36.3857868,191.825068 37.4853573,193.724326 C38.185084,195.023819 38.8848106,195.923467 39.6844982,196.423272 C40.4841859,196.923077 41.3838344,197.22296 42.5833659,197.22296 C43.8828583,197.22296 45.0823897,196.823116 46.0819992,196.123389 C47.9812573,194.823897 48.9808668,192.724717 48.9808668,189.92581 C48.9808668,185.927372 47.8812964,182.5287 45.5821945,179.829754 C44.6825459,178.730184 43.5829754,178.130418 42.383444,178.130418 C41.9836002,178.130418 41.6837173,178.130418 41.3838344,178.230379 C40.4841859,178.430301 39.7844592,178.530262 39.3846154,178.530262 C38.7848497,178.530262 37.7852401,178.130418 36.2858258,177.430691 C33.0870754,175.931277 29.7883639,175.23155 26.3896915,175.23155 C22.7910972,175.23155 19.1925029,175.931277 15.7938305,177.430691 C11.2955877,179.42991 7.59703241,182.228817 4.79812573,185.927372 C1.59937524,190.225693 0,194.923858 0,200.121827 C0,204.62007 1.29949239,208.81843 3.89847716,212.916829 C6.59742288,217.415072 10.0960562,220.613823 14.6942601,222.613042 Z M53.2791878,187.226865 C54.5786802,188.026552 55.3783678,189.226084 55.7782116,190.825459 C56.0780945,192.424834 56.2780164,196.123389 56.2780164,201.821164 C56.2780164,207.418977 56.0780945,211.717298 55.6782507,214.816087 C55.4783288,216.615385 54.8785631,217.714955 53.9789145,218.114799 C52.979305,218.514643 52.3795392,218.914487 52.0796564,219.214369 C51.7797735,219.514252 51.6798126,219.914096 51.6798126,220.513862 C51.6798126,221.213588 51.9796954,221.913315 52.4795002,222.513081 C52.979305,223.112847 53.6790316,223.612651 54.5786802,223.912534 C56.3779774,224.612261 59.5767278,224.912144 64.0749707,224.912144 C68.0734088,224.912144 70.8723155,224.612261 72.5716517,224.112456 C73.4713003,223.812573 74.1710269,223.412729 74.7707927,222.812964 C75.2705974,222.213198 75.5704803,221.513471 75.5704803,220.713784 C75.5704803,220.114018 75.4705193,219.614213 75.1706365,219.31433 C74.8707536,219.014447 74.2709879,218.614604 73.4713003,218.21476 C72.4716907,217.814916 71.6720031,217.115189 71.5720422,216.315502 C71.3721203,215.515814 71.1721984,212.616947 71.1721984,207.618899 L71.1721984,196.323311 C71.1721984,192.824678 71.5720422,189.026162 71.871925,184.827802 C72.0718469,182.128856 72.3717298,180.42952 72.3717298,179.629832 C72.3717298,177.33073 71.4720812,176.23116 69.6727841,176.23116 C68.4732526,176.23116 66.6739555,176.431082 64.0749707,176.930886 C61.4759859,177.33073 59.4767669,177.830535 57.7774307,178.33034 C55.3783678,179.030066 53.5790707,179.829754 52.4795002,180.729403 C51.3799297,181.629051 50.880125,182.628661 50.880125,183.728231 C50.880125,184.427958 51.0800469,185.027724 51.3799297,185.527528 C51.6798126,186.127294 52.3795392,186.72706 53.2791878,187.226865 Z M96.0624756,225.212027 C101.76025,225.212027 106.858258,223.51269 111.356501,220.114018 C116.054666,216.515424 118.353768,212.217103 118.353768,207.219055 C118.353768,204.320187 117.654041,201.521281 116.154627,198.822335 C114.755174,196.22335 112.855916,194.224131 110.556814,192.624756 C107.358063,190.425615 103.559547,189.326045 99.2612261,189.326045 C93.163608,189.326045 87.8656775,191.125342 83.5673565,194.823897 C79.4689574,198.32253 77.3697774,202.820773 77.3697774,208.318626 C77.3697774,213.316673 79.0691136,217.315111 82.3678251,220.413901 C85.9664194,223.612651 90.5646232,225.212027 96.0624756,225.212027 Z M94.0632565,198.522452 C94.6630223,197.722765 95.4627099,197.422882 96.5622804,197.422882 C97.9617337,197.422882 99.0613042,198.32253 99.7610308,199.921906 C100.460758,201.521281 101.160484,203.5205 101.660289,206.019524 C102.160094,208.518547 102.459977,210.717688 102.459977,212.716907 C102.459977,215.315892 101.460367,216.715346 99.361187,216.715346 C97.7618118,216.715346 96.5622804,215.715736 95.8625537,213.816478 C95.162827,211.91722 94.4631004,209.81804 93.9632956,207.418977 C93.4634908,205.019914 93.163608,203.120656 93.163608,201.721203 C93.163608,200.321749 93.4634908,199.32214 94.0632565,198.522452 Z M148.641937,224.612261 C149.041781,224.912144 149.841468,225.012105 150.941039,225.012105 C153.639984,225.012105 156.538852,224.712222 159.43772,224.012495 C164.435767,222.912925 166.934791,221.213588 166.934791,219.114408 C166.934791,218.014838 166.534947,217.21515 165.435377,216.615385 C164.035923,215.915658 163.63608,215.215931 163.63608,214.416244 L163.63608,198.922296 C163.63608,197.322921 163.436158,195.923467 163.436158,194.823897 C163.436158,194.024209 163.336197,193.524405 163.336197,193.224522 C163.336197,190.725498 162.136665,189.426005 159.737602,189.426005 C155.539242,189.426005 151.140961,189.92581 146.84264,191.025381 C144.543538,191.625146 143.344006,192.624756 143.344006,194.024209 C143.344006,195.12378 144.043733,196.023428 145.343225,196.723155 C146.042952,197.122999 146.442796,197.422882 146.642718,197.622804 C146.84264,197.922686 147.042561,198.32253 147.142522,198.922296 C147.442405,200.321749 147.542366,202.920734 147.542366,206.819211 C147.542366,210.717688 147.242483,213.216712 146.742679,214.316283 C146.442796,214.916048 146.042952,215.315892 145.343225,215.715736 C144.643499,216.11558 144.043733,216.315502 143.344006,216.315502 C140.645061,216.315502 139.345568,214.316283 139.345568,210.217884 L139.345568,191.225303 C139.345568,190.025771 138.645841,189.426005 137.246388,189.426005 C132.648184,189.426005 128.04998,189.92581 123.451777,190.92542 C120.752831,191.525185 119.453339,192.724717 119.453339,194.424053 C119.453339,194.923858 119.553299,195.323702 119.853182,195.623585 C120.053104,195.923467 120.65287,196.323311 121.552519,196.723155 C122.552128,197.22296 123.051933,198.022647 123.451777,198.922296 C123.85162,199.821945 123.951581,201.321359 123.951581,203.320578 L123.951581,204.919953 L123.951581,209.81804 C123.951581,214.916048 124.751269,218.614604 126.350644,220.813745 C128.149941,223.412729 131.348692,224.712222 135.846935,224.712222 C138.545881,224.712222 141.144865,223.912534 143.443967,222.313159 C144.643499,221.513471 145.343225,221.013667 145.543147,220.913706 C145.743069,220.813745 146.042952,220.713784 146.342835,220.713784 C147.142522,220.713784 147.542366,221.41351 147.642327,222.912925 C147.94221,223.912534 148.242093,224.412339 148.641937,224.612261 Z M174.931667,221.213588 C177.830535,223.912534 181.129246,225.212027 184.727841,225.212027 C187.626708,225.212027 190.325654,224.212417 192.724717,222.313159 C193.524405,221.613432 194.224131,221.213588 194.623975,221.213588 C195.323702,221.213588 195.723545,221.813354 195.923467,223.012886 C196.023428,223.812573 196.123389,224.412339 196.323311,224.612261 C196.523233,224.812183 197.023038,224.912144 197.822725,224.912144 C201.221398,224.912144 204.62007,224.5123 208.018743,223.612651 C211.817259,222.613042 213.616556,221.213588 213.616556,219.31433 C213.616556,218.714565 213.516595,218.114799 213.216712,217.714955 C212.916829,217.315111 212.317064,216.715346 211.517376,216.215541 C210.817649,215.715736 209.918001,215.215931 209.81804,214.716127 C209.618118,214.216322 209.118313,213.01679 209.118313,211.217493 L209.118313,179.229988 C209.118313,177.33073 208.518547,176.331121 206.519328,176.331121 C204.520109,176.331121 200.721593,177.130808 194.723936,178.830144 C191.325264,179.829754 189.725888,181.129246 189.725888,182.828583 C189.725888,184.028114 190.525576,184.827802 192.02499,185.327606 C193.124561,185.627489 193.824287,186.027333 194.224131,186.527138 C194.623975,187.026943 194.823897,187.626708 194.823897,188.526357 C194.823897,190.525576 194.424053,191.525185 193.724326,191.525185 C193.524405,191.525185 193.224522,191.425225 192.924639,191.225303 C190.825459,190.025771 188.326435,189.426005 185.627489,189.426005 C183.228426,189.426005 180.829364,190.025771 178.430301,191.325264 C175.531433,192.824678 173.232331,195.023819 171.532995,197.822725 C169.733698,200.921515 168.834049,204.020305 168.834049,207.319016 C168.834049,210.117923 169.533776,212.916829 170.933229,215.615775 C171.832878,217.714955 173.232331,219.614213 174.931667,221.213588 Z M187.226865,199.32214 C188.126513,197.722765 189.326045,196.923077 190.825459,196.923077 C192.02499,196.923077 192.924639,197.422882 193.624365,198.422491 C194.424053,199.622023 194.823897,202.021086 194.823897,205.61968 C194.823897,209.518157 194.524014,212.417025 193.824287,214.116361 C193.124561,215.915658 192.02499,216.715346 190.525576,216.715346 C189.126123,216.715346 188.026552,216.11558 187.226865,214.916048 C186.127294,213.316673 185.527528,210.91761 185.527528,207.71886 C185.427567,204.220226 186.027333,201.42132 187.226865,199.32214 Z M230.509957,216.315502 C231.809449,216.215541 232.609137,216.11558 232.90902,216.11558 C233.808668,216.11558 234.308473,216.515424 234.308473,217.415072 C234.308473,218.514643 233.708708,220.014057 232.609137,221.813354 C231.409606,223.812573 229.910191,225.311988 228.210855,226.411558 C226.811402,227.311207 226.111675,228.010933 226.111675,228.510738 C226.111675,229.210465 227.211246,230.210074 229.510348,231.409606 C231.709488,232.609137 233.608747,233.208903 235.0082,233.208903 C235.807888,233.208903 236.807497,232.809059 238.007029,231.90941 C243.005076,228.210855 247.303397,223.212807 251.001952,217.015228 C254.300664,211.417415 256,206.019524 256,200.921515 C256,194.623975 253.500976,190.025771 248.402968,187.126904 C244.50449,185.027724 240.30613,183.928153 235.607966,183.928153 C229.81023,183.928153 224.912144,185.427567 220.913706,188.326435 C217.115189,191.025381 215.215931,194.923858 215.215931,199.921906 C215.215931,202.420929 215.715736,204.819992 216.615385,207.119094 C217.515033,209.418196 218.914487,211.417415 220.613823,213.01679 C222.912925,215.215931 225.911753,216.215541 229.610308,216.215541 C230.010152,216.415463 230.310035,216.415463 230.509957,216.315502 Z M232.509176,195.323702 C233.208903,194.524014 234.00859,194.024209 235.0082,194.024209 C236.10777,194.024209 237.10738,194.524014 238.007029,195.523624 C238.706755,196.323311 239.306521,197.522843 239.806326,199.122218 C240.30613,200.721593 240.606013,202.121046 240.606013,203.420539 C240.606013,204.520109 240.30613,205.419758 239.706365,206.119485 C239.106599,206.819211 238.306911,207.219055 237.407263,207.219055 C235.807888,207.219055 234.408434,206.319406 233.208903,204.62007 C232.009371,202.920734 231.409606,200.821554 231.409606,198.422491 C231.509567,197.22296 231.90941,196.22335 232.509176,195.323702 Z M241.005857,67.2737212 C227.411168,53.6790316 208.018743,49.2807497 190.825459,54.1788364 C187.82663,23.7907068 162.136665,0 131.048809,0 C102.260055,0 78.1694651,20.2920734 72.3717298,47.3814916 C53.3791488,41.2838735 31.787583,45.7821164 16.6934791,60.8762202 C-4.79812573,82.3678251 -4.79812573,117.154237 16.6934791,138.645841 C34.4865287,156.438891 60.4763764,161.5369 73.971105,161.5369 L80.368606,161.5369 L179.030066,161.5369 C199.422101,161.636861 221.513471,159.337759 240.905896,140.045295 C260.998048,119.853182 260.998048,87.3658727 241.005857,67.2737212 Z M155.439282,110.556814 C151.440843,117.354159 137.046466,138.645841 130.0492,138.645841 C126.350644,138.645841 112.755955,131.848497 112.755955,127.050371 C112.755955,125.351035 114.655213,123.551738 115.654822,122.951972 C121.952362,118.853573 128.849668,106.858258 128.849668,100.260836 C128.849668,98.0616947 127.650137,97.1620461 126.050761,97.1620461 C123.951581,97.1620461 121.75244,97.6618508 119.65326,97.6618508 C100.360797,97.6618508 91.4642718,76.7700117 91.4642718,57.9773526 C91.4642718,31.4877001 112.056228,19.3924248 130.848887,19.3924248 C150.841078,19.3924248 171.03319,31.687622 171.03319,59.5767278 C171.03319,78.6692698 164.335806,95.5626708 155.439282,110.556814 L155.439282,110.556814 Z M129.849278,43.7828973 C125.450996,43.7828973 123.051933,49.5806326 123.051933,54.5786802 C123.051933,62.8754393 126.750488,75.9703241 134.647403,75.9703241 C138.745802,75.9703241 140.944943,71.3721203 140.944943,66.6739555 C140.844982,59.5767278 137.546271,43.7828973 129.849278,43.7828973 L129.849278,43.7828973 Z" fill="#00A8E9"></path>
    </g>
</svg>
